X:1
T: Merrily Danced the Quaker's Wife
C:Shawyer version
R:Jig
Q:180
K:D
M:6/8
L:1/16
|:A2|d2e2f2 A4f2|g4f2 e4d2|d2e2f2 A4A2|B6d4A2|
d2e2f2 A4f2|a2g2f2 e4e2|d2e2f2 A4A2|B6d4A2|
d4f2 a4f2|b4g2 a4f2|d4f2 a4g2|f6a4a2|
b4g2 e2f2g2|a4f2 d4A2|d2e2f2 A4A2|G6F4:|
